packages/ui-icons/svg/Line/exit-full-screen.svg

<svg viewBox="0 0 1920 1920" version="1.1" xmlns="http://www.w3.org/2000/svg">
    <path d="M876.612259,1043.38774 L876.612259,1753.55901 L761.268541,1753.55901 L761.268541,1240.27947 L81.6633525,1920 L0,1838.33665 L679.720532,1158.73146 L166.440985,1158.73146 L166.440985,1043.38774 L876.612259,1043.38774 Z M1838.39432,0 L1919.94233,81.5480088 L1240.33714,761.268541 L1753.61669,761.268541 L1753.61669,876.612259 L1043.44541,876.612259 L1043.44541,166.440985 L1158.78913,166.440985 L1158.78913,679.605188 L1838.39432,0 Z" stroke="none" stroke-width="1" fill-rule="evenodd"/>
</svg>

<svg viewBox="0 0 1920 1920" xmlns="http://www.w3.org/2000/svg">
    <path d="M876.612 1043.388v710.171H761.27v-513.28L81.663 1920 0 1838.337l679.72-679.606H166.442v-115.343h710.171ZM1838.394 0l81.548 81.548-679.605 679.72h513.28v115.344h-710.172V166.441h115.344v513.164L1838.394 0Z" fill-rule="evenodd"/>
</svg>
